symbolic/16x16/panel/stock_weather-night-few-clouds.svg

<svg xmlns="http://www.w3.org/2000/svg" width="16" height="16" version="1.1">
 <defs>
  <style id="current-color-scheme" type="text/css">
   .ColorScheme-Text { color:#323a41; } .ColorScheme-Highlight { color:#4285f4; } .ColorScheme-NeutralText { color:#ff9800; } .ColorScheme-PositiveText { color:#4caf50; } .ColorScheme-NegativeText { color:#f44336; }
  </style>
 </defs>
 <path style="fill:currentColor" class="ColorScheme-Text" d="M 7.7397,1.0311 C 4.9769,1.1325 2.431,2.8357 1.4272,5.5936 0.16326,9.066 1.7958,12.918 5.1147,14.406 5.0215,14.069 4.9678,13.699 4.9897,13.344 5.0174,12.342 5.5736,11.456 6.3647,10.875 4.7978,9.142 4.2291,6.6284 5.0834,4.2811 5.5976,2.8685 6.5578,1.7727 7.7397,1.0311 Z M 10.99,9 C 9.6777,9 8.5847,9.858 8.1767,11.031 6.9463,11.187 5.9897,12.227 5.9897,13.5 5.9897,14.881 7.1087,16 8.4897,16 H 13.99 C 15.095,16 15.99,15.104 15.99,14 15.99,12.895 15.095,12 13.99,12 13.99,10.343 12.647,9 10.99,9 Z"/>
</svg>

<svg xmlns="http://www.w3.org/2000/svg" width="16" height="16"><defs><style id="current-color-scheme" type="text/css"></style></defs><path style="fill:currentColor;color:#323a41" d="M7.74 1.031c-2.763.102-5.309 1.805-6.313 4.563-1.264 3.472.369 7.324 3.688 8.812a3.296 3.296 0 0 1-.125-1.062c.027-1.002.584-1.888 1.375-2.469a6.497 6.497 0 0 1-1.282-6.594c.515-1.412 1.475-2.508 2.657-3.25zM10.99 9c-1.312 0-2.405.858-2.813 2.031A2.494 2.494 0 0 0 8.49 16h5.5a2 2 0 0 0 0-4 3 3 0 0 0-3-3z"/></svg>
